X: 36
P: Longways for as many as will
M: 3/2
L: 1/8
K: Ddor
|:\
|: D2a2 gfe2 c4 | GEC2 C2D2 EFGE |
|: (af)d2 (ec)A2 c4 | (GE)C2D2 EFGE |\
(af)d2 (ec)A2 d4 | AFD2 DFD2 EFGE :|

